X: 2232
T: Avenging And Bright
R: waltz
M: 3/4
K: Bminor
F2|:B3c dB|c2 f3e|dc B3c|A2 F2 F2|
B3c dB|c2 f3e|dc BA FA|1 B4 F2:|2 B4 c2||
|:d2 de fd|c2 A2 F2|G3B AG|FG EF DA|
d2 de fd|cB A2 F2|GF GA Bc|1 d4 A2:|2 d4 F2||

